X: 4345
T: SINCE LIFE GLIDES. (Fra Diavolo.)
%R: air, jig
B: James Kerr "Merry Melodies" v.4 p.36 #345
Z: 2016 John Chambers <jc:trillian.mit.edu>
M: 6/8
L: 1/8
K: G
DG |\
BGB d2^c | d3 BDG | BGB d2^c | d3 B2G |\
A2A A2A | A2A A2A | ^G2A BcA |[1 G3- G2 :|[2 GGG GGG ||
|:\
(g2a/g/) fed | (f2g/f/) edc | (e2f/e/) dcB |[1 d3- d2G :|\
[2 d3 cBA | BAG FED | ^ABG cB=A | BAG FED | G2z z |]

%%sep 1 1 500
%%sep 1 1 500

